raw/symbols/coin.svg

<svg width="36" height="36" viewBox="0 0 36 36" fill="none" xmlns="http://www.w3.org/2000/svg">
<rect width="36" height="36" rx="18" fill="#5176C4"/>
<path d="M18.1359 13.2429C20.0454 13.2429 21.5603 14.4206 22.1354 16.1722H25.9839C25.2865 12.4277 22.196 9.89062 18.1668 9.89062C13.5911 9.89062 10.0159 13.3641 10.0159 18.0153C10.0159 22.6664 13.5008 26.109 18.1668 26.109C22.1056 26.109 25.2567 23.572 25.9542 19.7966H22.1354C21.59 21.5482 20.0751 22.7568 18.1657 22.7568C15.5291 22.7568 13.6814 20.733 13.6814 18.0153C13.6826 15.2666 15.5005 13.2429 18.1359 13.2429Z" fill="#030303"/>
</svg>

<svg xmlns="http://www.w3.org/2000/svg" width="36" height="36" fill="none"><rect width="36" height="36" fill="#5176C4" rx="18"/><path fill="#030303" d="M18.136 13.243c1.91 0 3.424 1.178 4 2.93h3.848c-.698-3.745-3.788-6.282-7.817-6.282-4.576 0-8.151 3.473-8.151 8.124 0 4.651 3.485 8.094 8.15 8.094 3.94 0 7.09-2.537 7.788-6.312h-3.819c-.545 1.751-2.06 2.96-3.97 2.96-2.636 0-4.484-2.024-4.484-4.742.002-2.748 1.82-4.772 4.455-4.772Z"/></svg>
